src/components/00-materials/images-raw/P&C/Within 72 HRS.svg

<svg xmlns="http://www.w3.org/2000/svg" viewBox="0 0 96 96"><g fill="none" stroke="#00008f" stroke-linecap="round" stroke-linejoin="round" stroke-width="2"><path d="M37 39h9l-8 17m9.99-35.06l-.03 7m-.17 40l-.03 7M27.88 47.86l-7-.04m53.99.24l-7-.03m5.14-30.98l-.04 9-9-.03m8.59.03a33 33 0 1 0 4.77 7m-48.37-4.19l.99 1m-1.16 37l1.01-1m36.99 1.17l-.99-1.01M23.1 37.55l1.3.55m13.08 34.62l.55-1.3m34.62-13.08l-1.3-.55M37.7 23.07l.54 1.31M23.01 58.12l1.3-.54m33.74 15.23l-.54-1.3"/><path d="M59 56h-9l7.66-10.5a4.18 4.18 0 0 0-3.48-6.5A4.18 4.18 0 0 0 50 43.18"/></g></svg>

<svg xmlns="http://www.w3.org/2000/svg" viewBox="0 0 96 96"><defs><style>.cls-2{fill:none;stroke:#00008f;stroke-linecap:round;stroke-linejoin:round;stroke-width:2px}</style></defs><g id="Layer_2" ><g id="icons"><path class="cls-2" d="M37 39h9l-8 17M47.99 20.94l-.03 7M47.79 67.94l-.03 7M27.88 47.86l-7-.04M74.87 48.06l-7-.03M73.01 17.05l-.04 9-9-.03M72.56 26.05a33 33 0 1 0 4.77 7M28.96 28.86l.99 1M28.79 66.86l1.01-1M66.79 67.03l-.99-1.01M23.1 37.55l1.3.55M37.48 72.72l.55-1.3M72.65 58.34l-1.3-.55M37.7 23.07l.54 1.31M23.01 58.12l1.3-.54M58.05 72.81l-.54-1.3"/><path class="cls-2" d="M59 56h-9l7.66-10.5a4.18 4.18 0 0 0-3.48-6.5A4.18 4.18 0 0 0 50 43.18"/></g></g></svg>
